!!!!SEGMENT: pl-kk--kk-i-111--013-001_anonim--deo-gratias-confessoribus-1mum.krn
!!!cenid: 18xx:2584
!!!COM: Anonim
!!!COM-rismid: pe30004985
!!!CDT:
!!!CNT:
!!!GTL: Deo gratias
!!!OTL: Confessoribus 1mum
!!!OMV: 001
!!!PDT: 1824
!!!AGN: Sacred
!!!SMS-siglum: PL-Kk
!!!SMS-shelfmark: Kk.I.111
!!!SMS-shelfwork: 013-001 G
!!!SMS-variant:
!!!SMS-altvar:
!!!NIFC-rismid: 1001157699
!!!URL-scan: http://repozytorium.nifc.pl/skany/pl-kk-nut--i-111
!!!ONB-nifc: UWAGA: A, T1, T2. Podział na poszególne Deo gratias. A: skan 0004 (m.in)
!!!AIN: 1 alto 2 tenor
!!!key:
**kern	**text	**kern	**text	**kern	**text
*part3	*part3	*part2	*part2	*part1	*part1
*staff3	*staff3	*staff2	*staff2	*staff1	*staff1
*Itenor	*	*Itenor	*	*Ialto	*
*I"Tenore Vagante	*	*I"Tenore	*	*I"Alto	*
*I'T 2	*	*I'T	*	*I'A	*
*clefC4	*	*clefC4	*	*clefC3	*
*k[b-]	*	*k[b-]	*	*k[b-]	*
*F:	*	*F:	*	*F:	*
*M2/1	*	*M2/1	*	*M2/1	*
*met(c|)	*	*met(c|)	*	*met(c|)	*
=1-	=1-	=1-	=1-	=1-	=1-
!	!	!	!	!LO:TX:t=P:problem=all\right&colon; global	!
!	!	!LO:TX:t=P:problem=kreska pseudotaktowa	!	!LO:TX:a:B:t=Prestissimo	!
2c\	De-	1F	De-	2f\	De-
!LO:TX:t=P:problem=kreska pseudotaktowa	!	!	!	!	!
2A\	.	.	.	2c/	.
!LO:TX:t=P:problem=kreska pseudotaktowa	!	!LO:TX:t=P:problem=kreska pseudotaktowa	!	!	!
1.B-	-o	1G	.	2d\	-o
!	!	!	!	!LO:TX:t=P:problem=kreska pseudotaktowa	!
.	.	.	.	2e\	.
=2	=2-	=2	=2-	=2	=2-
!	!	!LO:TX:t=P:problem=kreska pseudotaktowa	!	!	!
.	.	1B-X	.	2f\	gra-
!LO:TX:t=P:problem=kreska pseudotaktowa	!	!	!	!	!
2G/	.	.	.	4e\	.
!	!	!	!	!LO:TX:t=P:problem=kreska pseudotaktowa	!
.	.	.	.	4d\	.
!LO:TX:t=P:problem=kreska pseudotaktowa	!	!LO:TX:t=P:problem=kreska pseudotaktowa	!	!	!
1A	.	1F	.	2c\	.
!	!	!	!	!LO:TX:t=P:problem=kreska pseudotaktowa	!
.	.	.	.	2d\	.
=3	=3-	=3	=3-	=3	=3-
!	!	!LO:TX:t=P:problem=kreska pseudotaktowa	!	!	!
2G/	gra-	1G	-o	2B-/	.
!LO:TX:t=P:problem=kreska pseudotaktowa	!	!	!	!LO:TX:t=P:problem=kreska pseudotaktowa	!
2c\	.	.	.	2c/	.
!LO:TX:t=P:problem=kreska pseudotaktowa	!	!LO:TX:t=P:problem=kreska pseudotaktowa	!	!	!
1A	.	1F	.	2f\	.
!	!	!	!	!LO:TX:t=P:problem=kreska pseudotaktowa	!
.	.	.	.	2c/	.
=4	=4-	=4	=4-	=4	=4-
!	!	!LO:TX:t=P:problem=kreska pseudotaktowa	!	!	!
2B-\	.	1E	.	2B-/	.
!LO:TX:t=P:problem=kreska pseudotaktowa	!	!	!	!LO:TX:t=P:problem=kreska pseudotaktowa	!
2c\	.	.	.	2A/	.
!	!	!LO:TX:t=P:problem=kreska pseudotaktowa	!	!	!
4d\	.	1D	.	2f\	.
4c\	.	.	.	.	.
!	!	!	!	!LO:TX:t=P:problem=kreska pseudotaktowa	!
4B-\	.	.	.	2g\	-ti-
!LO:TX:t=P:problem=kreska pseudotaktowa	!	!	!	!	!
4A\	.	.	.	.	.
=5	=5-	=5	=5-	=5	=5-
!LO:TX:t=P:problem=kreska pseudotaktowa	!	!LO:TX:t=P:problem=kreska pseudotaktowa	!	!LO:TX:t=P:problem=kreska pseudotaktowa	!
1G	.	1C	.	1e	-as
!	!	!LO:TX:t=P:problem=kreska pseudotaktowa	!	!	!
2A\	.	1F	gra-	2f\	De-
!LO:TX:t=P:problem=kreska pseudotaktowa	!	!	!	!LO:TX:t=P:problem=kreska pseudotaktowa	!
2c\	-ti-	.	.	2c/	.
=6	=6-	=6	=6-	=6	=6-
!LO:TX:t=P:problem=kreska pseudotaktowa	!	!LO:TX:t=P:problem=kreska pseudotaktowa	!	!	!
1B-	-as	1G	.	2B-/	-o
!	!	!	!	!LO:TX:t=P:problem=kreska pseudotaktowa	!
.	.	.	.	2d\	.
!LO:TX:t=P:problem=kreska pseudotaktowa	!	!LO:TX:t=P:problem=kreska pseudotaktowa	!	!	!
1c	De-	1A	.	2en\	gra-
!	!	!	!	!LO:TX:t=P:problem=kreska pseudotaktowa	!
.	.	.	.	2f\	.
=7	=7-	=7	=7-	=7	=7-
!LO:TX:t=P:problem=kreska pseudotaktowa	!	!LO:TX:t=P:problem=kreska pseudotaktowa	!	!	!
1G	.	1c	.	2c/	.
!	!	!	!	!LO:TX:t=P:problem=kreska pseudotaktowa	!
.	.	.	.	2e\	.
!LO:TX:t=P:problem=kreska pseudotaktowa	!	!LO:TX:t=P:problem=kreska pseudotaktowa	!	!LO:TX:t=P:problem=kreska pseudotaktowa	!
1c	-o	1A	.	1f	.
=8	=8-	=8	=8-	=8	=8-
!	!	!LO:TX:t=P:problem=kreska pseudotaktowa	!	!LO:TX:t=P:problem=kreska pseudotaktowa	!
2d\	gra-	1B-X	.	1g	.
!LO:TX:t=P:problem=kreska pseudotaktowa	!	!	!	!	!
2en\	.	.	.	.	.
!	!	!LO:TX:t=P:problem=kreska pseudotaktowa	!	!LO:TX:t=P:problem=kreska pseudotaktowa	!
2c\	.	1A	.	1.f	.
!LO:TX:t=P:problem=kreska pseudotaktowa	!	!	!	!	!
2A\	.	.	.	.	.
=9	=9-	=9	=9-	=9	=9-
!	!	!LO:TX:t=P:problem=kreska pseudotaktowa	!	!	!
2F/	.	1G	.	.	.
4c\	.	.	.	4e\	.
!LO:TX:t=P:problem=kreska pseudotaktowa	!	!	!	!LO:TX:t=P:problem=kreska pseudotaktowa	!
4B-\	.	.	.	4d\	.
!	!	!LO:TX:t=P:problem=kreska pseudotaktowa	!	!	!
2A\	.	1F	.	2c\	.
!LO:TX:t=P:problem=kreska pseudotaktowa	!	!	!	!LO:TX:t=P:problem=kreska pseudotaktowa	!
2d\	.	.	.	2B-/	.
=10	=10-	=10	=10-	=10	=10-
!	!	!LO:TX:t=P:problem=kreska pseudotaktowa	!	!	!
2G/	.	1E	.	2e\	.
!LO:TX:t=P:problem=kreska pseudotaktowa	!	!	!	!	!
2c\	.	.	.	1f\	.
2.B-\	.	2.G/	.	.	.
.	.	.	.	2e\	-ti-
!LO:TX:t=P:problem=kreska pseudotaktowa	!	!LO:TX:t=P:problem=kreska pseudotaktowa	!	!	!
4G/	-ti-	4G/	-ti-	.	.
=11	=11-	=11-	=11-	=11-	=11-
0A;	-as.	0F;	-as.	0f;	-as.
.	.	.	.	.	.
==	==	==	==	==	==
*-	*-	*-	*-	*-	*-
!!!system-decoration: [(s1,s2,s3)]
!!!ENC: Kamil Watkowski
!!!END: 2021-08-04
